X:1
T:Title
%%score ( 1 2 ) ( 3 4 )
L:1/8
Q:1/4=108
M:4/4
K:Ab
V:1 treble nm="Midi_20"
V:2 treble 
V:3 bass nm="Midi_20"
V:4 bass 
V:1
"^Alford (76. 86. D)""^John Bacchus Dykes\n(1823-76)""^Ten thousand times ten thousand""^Henry Alford\n(1810-71)" c2 | %1
w: Ten|
w: What|
w: O|
w: Bring|
 d3 d A2 B2 | c2 A4 c2 | e2 c2 A2 B2 | A6 ||[M:4/4] c2 | B3 B e2 B2 | =d2 c2 B2 A2 | G3 E A2 =D2 | %9
w: thou- sand times ten|thou- sand, In|spark- ling rai- ment|bright,|The|ar- mies of the|ran- somed saints Throng|up the steeps of|
w: rush of hal- le-|lu- jahs Fills|all the earth and|sky!|What|ring- ing of a|thou- sand harps Be-|speaks the tri- umph|
w: then what rap- tured|greet- ings On|Ca- naan's hap- py|shore,|What|knitt- ing se- vered|friend- ships up, Where|part- ings are no|
w: near the great sal-|va- tion, Thou|Lamb for sin- ners|slain;|Fill|up the roll of|Thine e- lect, Then|take Thy power and|
 E6 || E2 | B3 B A2 B2 | c2 c4 c2 | d2 B2 c2 (BA) | B6 || E2 | F2 E2 A2 A2 | B3 c d2 B2 | %18
w: light;|'Tis|fin- ished, all *|fin- ished, Their|fight with death and *||Fling|o- pen wide *|gol- den gates, And|
w: nigh!|O|day for which *|a- tion And|all its tribes were *||O|joy, for all *|for- mer woes A|
w: more!|Then|eyes with joy *|spar- kle That|brimmed with tears of *||Or-|phans no long- *|fa- ther- less, Nor|
w: reign;|Ap-|pear, De- sire *|na- tions; Thine|ex- iles long for *||Show|in the heaven *|pro- mised sign; Thou|
 A3 E c2 B2 | A6 |] %20
w: let the vic- tors|in.|
w: thou- sand- fold re-|paid!|
w: wi- dows de- so-|late.|
w: Prince and Sa- viour,|come.|
V:2
 E2 | D3 D D2 D2 | C2 E4 A2 | A2 A2 F2 G2 | A6 ||[M:4/4] E2 | F3 =D E2 E2 | F2 E2 G2 F2 | %8
 E3 B, =D2 B,2 | B,6 || E2 | _D3 D C2 F2 | F2 =E4 _E2 | D2 D2 C2 =D2 | (=D4 E2) || E2 | %16
 F2 E2 A2 C2 | F3 E D2 F2 | E3 E A2 G2 | A6 |] %20
V:3
 A,2 | F,3 F, F,2 _F,2 | E,2 C4 A,2 | C2 E2 C2 D2 | C6 ||[M:4/4] C2 | =D3 B, B,2 B,2 | %7
w: |||||||
w: |||||||
w: |||||||
w: |||||||
 =B,2 C2 _D2 C2 | B,3 G, F,2 A,2 | G,6 || E,2 | G,3 G, A,2 (F,G,) | A,2 G,4 =A,2 | %13
w: ||||* * * is *||
w: ||||* * * cre\- *||
w: ||||* * * shall *||
w: ||||* * * of *||
 B,2 G,2 A,2 A,2 | (A,2 F,2 G,2) || E,2 | F,2 E,2 A,2 A,2 | F,3 =A, B,2 F,2 | C3 D E2 D2 | C6 |] %20
w: |sin; * *||||||
w: |made! * *||||||
w: |late! * *||||||
w: |home; * *||||||
V:4
 A,,2 | A,,3 A,, A,,2 A,,2 | A,,2 A,4 F,2 | E,2 E,2 F,2 E,2 | A,6 ||[M:4/4] A,2 | A,3 A, G,2 G,2 | %7
w: |||||||
w: |||||||
w: |||||||
w: |||||||
 A,2 A,2 =E,2 F,2 | B,,3 B,, B,,2 B,,2 | E,6 || E,2 | E,3 E, F,2 D,2 | C,2 C,4 F,2 | %13
w: ||||||
w: ||||||
w: ||||||
w: ||||||
 B,,2 E,2 A,,2 F,2 | (B,,4 E,2) || E,2 | F,2 E,2 A,2 (F,E,) | D,3 C, B,,2 D,2 | E,3 E, E,2 E,2 | %19
w: |||* * * the *|||
w: |||* * * its *|||
w: |||* * * er *|||
w: |||* * * Thy *|||
 [A,,A,]6 |] %20
w: |
w: |
w: |
w: |

